packages/Snapp/src/SelfieIcon/index.svg

<?xml version="1.0" encoding="UTF-8"?>
<svg width="24px" height="24px" viewBox="0 0 24 24" version="1.1" xmlns="http://www.w3.org/2000/svg" xmlns:xlink="http://www.w3.org/1999/xlink">
    <title>Icons/24/Selfie</title>
    <g id="Icons/24/Selfie" stroke="none" stroke-width="1" fill="none" fill-rule="evenodd">
        <rect id="Container" fill-opacity="0" fill="#D8D8D8" fill-rule="nonzero" x="0" y="0" width="24" height="24"></rect>
        <path d="M20,15 C20.5522847,15 21,15.4477153 21,16 L21,18 C21,19.5976809 19.75108,20.9036609 18.1762728,20.9949073 L18,21 L16,21 C15.4477153,21 15,20.5522847 15,20 C15,19.4477153 15.4477153,19 16,19 L18,19 C18.5128358,19 18.9355072,18.6139598 18.9932723,18.1166211 L19,18 L19,16 C19,15.4477153 19.4477153,15 20,15 Z M4,15 C4.55228475,15 5,15.4477153 5,16 L5,18 C5,18.5128358 5.38604019,18.9355072 5.88337887,18.9932723 L6,19 L8,19 C8.55228475,19 9,19.4477153 9,20 C9,20.5522847 8.55228475,21 8,21 L6,21 C4.40231912,21 3.09633912,19.75108 3.00509269,18.1762728 L3,18 L3,16 C3,15.4477153 3.44771525,15 4,15 Z M12,12.855129 C13.66875,12.855129 17,13.692629 17,15.355129 L17,15.355129 L17,16.605129 L7,16.605129 L7,15.355129 C7,13.692629 10.33125,12.855129 12,12.855129 Z M12,6.605129 C13.38125,6.605129 14.5,7.723879 14.5,9.105129 C14.5,10.486379 13.38125,11.605129 12,11.605129 C10.61875,11.605129 9.5,10.486379 9.5,9.105129 C9.5,7.723879 10.61875,6.605129 12,6.605129 Z M8,3 C8.55228475,3 9,3.44771525 9,4 C9,4.55228475 8.55228475,5 8,5 L6,5 C5.48716416,5 5.06449284,5.38604019 5.00672773,5.88337887 L5,6 L5,8 C5,8.55228475 4.55228475,9 4,9 C3.44771525,9 3,8.55228475 3,8 L3,6 C3,4.40231912 4.24891996,3.09633912 5.82372721,3.00509269 L6,3 L8,3 Z M18,3 C19.5976809,3 20.9036609,4.24891996 20.9949073,5.82372721 L21,6 L21,8 C21,8.55228475 20.5522847,9 20,9 C19.4477153,9 19,8.55228475 19,8 L19,6 C19,5.48716416 18.6139598,5.06449284 18.1166211,5.00672773 L18,5 L16,5 C15.4477153,5 15,4.55228475 15,4 C15,3.44771525 15.4477153,3 16,3 L18,3 Z" id="Combined-Shape" fill="#404040"></path>
    </g>
</svg>

<svg viewBox="0 0 24 24" xmlns="http://www.w3.org/2000/svg" fill="currentColor" focusable="false">
  <path d="M20 15a1 1 0 011 1v2a3 3 0 01-2.824 2.995L18 21h-2a1 1 0 010-2h2a1 1 0 00.993-.883L19 18v-2a1 1 0 011-1zM4 15a1 1 0 011 1v2a1 1 0 00.883.993L6 19h2a1 1 0 010 2H6a3 3 0 01-2.995-2.824L3 18v-2a1 1 0 011-1zm8-2.145c1.669 0 5 .838 5 2.5v1.25H7v-1.25c0-1.662 3.331-2.5 5-2.5zm0-6.25a2.5 2.5 0 11.001 4.999A2.5 2.5 0 0112 6.605zM8 3a1 1 0 110 2H6a1 1 0 00-.993.883L5 6v2a1 1 0 11-2 0V6a3 3 0 012.824-2.995L6 3h2zm10 0a3 3 0 012.995 2.824L21 6v2a1 1 0 01-2 0V6a1 1 0 00-.883-.993L18 5h-2a1 1 0 010-2h2z" fill="none"/>
</svg>
